icons/lines/card-edit.svg

<svg xmlns="http://www.w3.org/2000/svg" width="24" height="24" viewBox="0 0 24 24" fill="none" stroke="currentColor" stroke-width="2" stroke-linecap="round" stroke-linejoin="round" >
  <path d="M1.99609 8.5H11.4961" stroke-miterlimit="10"/>
  <path d="M5.99609 16.5H7.99609" stroke-miterlimit="10"/>
  <path d="M10.4961 16.5H14.4961" stroke-miterlimit="10"/>
  <path d="M21.9961 12.03V16.11C21.9961 19.62 21.1061 20.5 17.5561 20.5H6.43609C2.88609 20.5 1.99609 19.62 1.99609 16.11V7.89C1.99609 4.38 2.88609 3.5 6.43609 3.5H14.4961"/>
  <path d="M19.0764 4.13L15.3664 7.84C15.2264 7.98 15.0864 8.26 15.0564 8.46L14.8564 9.88C14.7864 10.39 15.1464 10.75 15.6564 10.68L17.0764 10.48C17.2764 10.45 17.5564 10.31 17.6964 10.17L21.4064 6.46C22.0464 5.82 22.3464 5.08 21.4064 4.14C20.4564 3.19 19.7164 3.49 19.0764 4.13Z" stroke-miterlimit="10"/>
  <path d="M18.5459 4.66C18.8659 5.79 19.7459 6.67 20.8659 6.98" stroke-miterlimit="10"/>
  </svg>

<svg xmlns="http://www.w3.org/2000/svg" width="24" height="24" viewBox="0 0 24 24" fill="none" stroke="currentColor" stroke-width="2" stroke-linecap="round" stroke-linejoin="round">
  <path d="M1.996 8.5h9.5" />
  <path d="M10.496 16.5h4" />
  <path d="M15.366 7.84a1.3 1.3 0 0 0-.31.62l-.2 1.42a.714.714 0 0 0 .8.8l1.42-.2a1.3 1.3 0 0 0 .62-.31l3.71-3.71c.64-.64.94-1.38 0-2.32-.95-.95-1.69-.65-2.33-.01z" />
  <path d="M18.546 4.66a3.35 3.35 0 0 0 2.32 2.32" />
  <path d="M21.996 12.03v4.08c0 3.51-.89 4.39-4.44 4.39H6.436c-3.55 0-4.44-.88-4.44-4.39V7.89c0-3.51.89-4.39 4.44-4.39h8.06" />
  <path d="M5.996 16.5h2" />
</svg>
